svg/emoji_u1fa79.svg

<?xml version="1.0" encoding="UTF-8" standalone="no"?>
<!-- Generator: Adobe Illustrator 25.2.3, SVG Export Plug-In . SVG Version: 6.00 Build 0)  -->

<svg
   version="1.1"
   id="Layer_4"
   x="0px"
   y="0px"
   viewBox="0 0 128 128"
   style="enable-background:new 0 0 128 128;"
   xml:space="preserve"
   sodipodi:docname="emoji_u1fa79.svg"
   inkscape:version="1.2.2 (732a01da63, 2022-12-09)"
   xmlns:inkscape="http://www.inkscape.org/namespaces/inkscape"
   xmlns:sodipodi="http://sodipodi.sourceforge.net/DTD/sodipodi-0.dtd"
   xmlns="http://www.w3.org/2000/svg"
   xmlns:svg="http://www.w3.org/2000/svg"><defs
   id="defs23924" /><sodipodi:namedview
   id="namedview23922"
   pagecolor="#ffffff"
   bordercolor="#000000"
   borderopacity="0.25"
   inkscape:showpageshadow="2"
   inkscape:pageopacity="0.0"
   inkscape:pagecheckerboard="0"
   inkscape:deskcolor="#d1d1d1"
   showgrid="false"
   inkscape:zoom="2.1210938"
   inkscape:cx="75.668508"
   inkscape:cy="19.801105"
   inkscape:window-width="1366"
   inkscape:window-height="697"
   inkscape:window-x="-8"
   inkscape:window-y="-8"
   inkscape:window-maximized="1"
   inkscape:current-layer="Layer_4" />
<g
   id="g23919"
   transform="translate(0.66000093)">
	<g
   id="g23909">
		<g
   id="g23907">
			
		</g>
	</g>
	<path
   style="fill:#db9f70"
   d="m 114.26,11.54 -0.51,-0.51 c 0,0 -0.01,-0.01 -0.01,-0.01 C 104.38,1.67 89.22,1.68 79.87,11.03 L 12.42,78.46 c 0,0 0,0 -0.01,0.01 -10.12,10.13 -10.12,26.56 0.02,36.68 l 0.51,0.51 c 9.35,9.35 24.52,9.35 33.87,0 l 67.44,-67.44 c 0,0 0,0 0.01,-0.01 10.13,-10.12 10.13,-26.54 0,-36.67 z m -94.21,89.88 c -1.03,1.03 -2.7,1.03 -3.72,0 -1.03,-1.03 -1.03,-2.7 0,-3.72 1.03,-1.03 2.7,-1.03 3.72,0 1.03,1.02 1.03,2.69 0,3.72 z m 1.64,-10.76 c -1.03,1.03 -2.7,1.03 -3.72,0 -1.03,-1.03 -1.03,-2.7 0,-3.72 1.03,-1.03 2.7,-1.03 3.72,0 1.02,1.03 1.02,2.7 0,3.72 z m 7.28,19.7 c -1.03,1.03 -2.7,1.03 -3.72,0 -1.03,-1.03 -1.03,-2.7 0,-3.72 1.03,-1.03 2.7,-1.03 3.72,0 1.03,1.03 1.03,2.69 0,3.72 z M 31.02,100 c -1.03,1.03 -2.7,1.03 -3.72,0 -1.03,-1.03 -1.03,-2.7 0,-3.72 1.03,-1.03 2.7,-1.03 3.72,0 1.03,1.03 1.03,2.69 0,3.72 z m 1.43,-10.98 c -1.03,1.03 -2.7,1.03 -3.72,0 -1.03,-1.03 -1.03,-2.7 0,-3.72 1.03,-1.03 2.7,-1.03 3.72,0 1.03,1.03 1.03,2.69 0,3.72 z m 1.64,-10.75 c -1.03,1.03 -2.7,1.03 -3.72,0 -1.03,-1.03 -1.03,-2.7 0,-3.72 1.03,-1.03 2.7,-1.03 3.72,0 1.02,1.02 1.02,2.69 0,3.72 z m 5.64,30.45 c -1.03,1.03 -2.7,1.03 -3.72,0 -1.03,-1.03 -1.03,-2.7 0,-3.72 1.03,-1.03 2.7,-1.03 3.72,0 1.03,1.02 1.03,2.69 0,3.72 z m 1.64,-10.76 c -1.03,1.03 -2.7,1.03 -3.72,0 -1.03,-1.03 -1.03,-2.7 0,-3.72 1.03,-1.03 2.7,-1.03 3.72,0 1.03,1.03 1.03,2.69 0,3.72 z M 43.41,87.6 c -1.03,1.03 -2.7,1.03 -3.72,0 -1.03,-1.03 -1.03,-2.7 0,-3.72 1.03,-1.03 2.7,-1.03 3.72,0 1.03,1.02 1.03,2.69 0,3.72 z m 8.73,8.72 c -1.03,1.03 -2.7,1.03 -3.72,0 -1.03,-1.03 -1.03,-2.7 0,-3.72 1.03,-1.03 2.7,-1.03 3.72,0 1.03,1.02 1.03,2.69 0,3.72 z M 78.27,34.09 c -1.03,1.03 -2.7,1.03 -3.72,0 -1.03,-1.03 -1.03,-2.7 0,-3.72 1.03,-1.03 2.7,-1.03 3.72,0 1.02,1.02 1.02,2.69 0,3.72 z M 87,42.81 c -1.03,1.03 -2.7,1.03 -3.72,0 -1.03,-1.03 -1.03,-2.7 0,-3.72 1.03,-1.03 2.7,-1.03 3.72,0 1.02,1.02 1.02,2.69 0,3.72 z m 2.03,-10.37 c -1.03,1.03 -2.7,1.03 -3.72,0 -1.03,-1.03 -1.03,-2.7 0,-3.72 1.03,-1.03 2.7,-1.03 3.72,0 1.02,1.03 1.02,2.69 0,3.72 z m 1.63,-10.75 c -1.03,1.03 -2.7,1.03 -3.72,0 -1.03,-1.03 -1.03,-2.7 0,-3.72 1.03,-1.03 2.7,-1.03 3.72,0 1.03,1.02 1.03,2.69 0,3.72 z m 5.66,30.45 c -1.03,1.03 -2.7,1.03 -3.72,0 -1.03,-1.03 -1.03,-2.7 0,-3.72 1.03,-1.03 2.7,-1.03 3.72,0 1.03,1.02 1.03,2.69 0,3.72 z m 1.64,-10.76 c -1.03,1.03 -2.7,1.03 -3.72,0 -1.03,-1.03 -1.03,-2.7 0,-3.72 1.03,-1.03 2.7,-1.03 3.72,0 1.03,1.03 1.03,2.7 0,3.72 z M 99.39,30.4 c -1.03,1.03 -2.7,1.03 -3.72,0 -1.03,-1.03 -1.03,-2.7 0,-3.72 1.03,-1.03 2.7,-1.03 3.72,0 1.02,1.03 1.02,2.7 0,3.72 z m 2.03,-10.36 c -1.03,1.03 -2.7,1.03 -3.72,0 -1.03,-1.03 -1.03,-2.7 0,-3.72 1.03,-1.03 2.7,-1.03 3.72,0 1.03,1.03 1.03,2.7 0,3.72 z m 7.3,19.7 c -1.03,1.03 -2.7,1.03 -3.72,0 -1.03,-1.03 -1.03,-2.7 0,-3.72 1.03,-1.03 2.7,-1.03 3.72,0 1.03,1.02 1.03,2.69 0,3.72 z m 1.64,-10.75 c -1.03,1.03 -2.7,1.03 -3.72,0 -1.03,-1.03 -1.03,-2.7 0,-3.72 1.03,-1.03 2.7,-1.03 3.72,0 1.03,1.02 1.03,2.69 0,3.72 z"
   id="path23911" />
	<g
   id="g23915">
		<path
   style="fill:#99674f"
   d="m 87.15,66.04 c 2.11,-2.32 1.73,-2.95 -2.18,-2.7 -3.23,0.2 -5.3,2.27 -6.58,3.55 L 64.32,80.95 c -1.25,1.25 -3.27,1.25 -4.52,0 C 59.76,80.91 59.72,80.87 59.68,80.83 57.34,78.49 48.25,69.4 48.25,69.4 46.97,68.12 45.5,66.44 43.8,65.94 c -1.39,-0.41 -2.61,-1.02 -5.19,-0.42 -2.22,0.51 1.71,3.84 2.65,4.78 1.52,1.52 13.32,13.32 17.7,17.7 1.68,1.68 4.4,1.68 6.08,0 0.01,-0.01 21.44,-21.22 22.11,-21.96 z"
   id="path23913" />
	</g>
	<path
   style="fill:#fcbf90"
   d="M 87.95,58.87 C 87.92,58.78 68.27,39.24 67.72,38.69 c -1.68,-1.68 -4.4,-1.68 -6.08,0 -1.95,1.95 -20.55,20.38 -20.55,20.38 0,0 -2.52,2.51 0.12,2.95 2.65,0.44 4.38,0.07 6.31,-1.8 4.96,-4.8 14.84,-14.5 14.84,-14.5 1.25,-1.25 3.27,-1.25 4.52,0 2.27,2.27 10.09,10 11.72,11.58 2.04,1.98 4.2,3.16 7.11,3.28 3.76,0.16 2.45,-1.14 2.24,-1.71 z"
   id="path23917" />
</g>
</svg>

<?xml version="1.0" encoding="UTF-8" standalone="no"?>
<!DOCTYPE svg PUBLIC "-//W3C//DTD SVG 1.1//EN" "http://www.w3.org/Graphics/SVG/1.1/DTD/svg11.dtd">
<svg width="100%" height="100%" viewBox="0 0 128 128" version="1.1" xmlns="http://www.w3.org/2000/svg" xmlns:xlink="http://www.w3.org/1999/xlink" xml:space="preserve" xmlns:serif="http://www.serif.com/" style="fill-rule:evenodd;clip-rule:evenodd;stroke-linejoin:round;stroke-miterlimit:2;">
    <g transform="matrix(1,0,0,1,0.660001,0)">
        <g id="g23919">
            <g id="g23909">
            </g>
            <path id="path23911" d="M114.26,11.54L113.74,11.02C104.38,1.67 89.22,1.68 79.87,11.03L12.42,78.46L12.41,78.47C2.29,88.6 2.29,105.03 12.43,115.15L12.94,115.66C22.29,125.01 37.46,125.01 46.81,115.66C46.81,115.66 114.25,48.22 114.26,48.21C124.39,38.09 124.39,21.67 114.26,11.54ZM20.05,101.42C19.02,102.45 17.35,102.45 16.33,101.42C15.3,100.39 15.3,98.72 16.33,97.7C17.36,96.67 19.03,96.67 20.05,97.7C21.08,98.72 21.08,100.39 20.05,101.42ZM21.69,90.66C20.66,91.69 18.99,91.69 17.97,90.66C16.94,89.63 16.94,87.96 17.97,86.94C19,85.91 20.67,85.91 21.69,86.94C22.71,87.97 22.71,89.64 21.69,90.66ZM28.97,110.36C27.94,111.39 26.27,111.39 25.25,110.36C24.22,109.33 24.22,107.66 25.25,106.64C26.28,105.61 27.95,105.61 28.97,106.64C30,107.67 30,109.33 28.97,110.36ZM31.02,100C29.99,101.03 28.32,101.03 27.3,100C26.27,98.97 26.27,97.3 27.3,96.28C28.33,95.25 30,95.25 31.02,96.28C32.05,97.31 32.05,98.97 31.02,100ZM32.45,89.02C31.42,90.05 29.75,90.05 28.73,89.02C27.7,87.99 27.7,86.32 28.73,85.3C29.76,84.27 31.43,84.27 32.45,85.3C33.48,86.33 33.48,87.99 32.45,89.02ZM34.09,78.27C33.06,79.3 31.39,79.3 30.37,78.27C29.34,77.24 29.34,75.57 30.37,74.55C31.4,73.52 33.07,73.52 34.09,74.55C35.11,75.57 35.11,77.24 34.09,78.27ZM39.73,108.72C38.7,109.75 37.03,109.75 36.01,108.72C34.98,107.69 34.98,106.02 36.01,105C37.04,103.97 38.71,103.97 39.73,105C40.76,106.02 40.76,107.69 39.73,108.72ZM41.37,97.96C40.34,98.99 38.67,98.99 37.65,97.96C36.62,96.93 36.62,95.26 37.65,94.24C38.68,93.21 40.35,93.21 41.37,94.24C42.4,95.27 42.4,96.93 41.37,97.96ZM43.41,87.6C42.38,88.63 40.71,88.63 39.69,87.6C38.66,86.57 38.66,84.9 39.69,83.88C40.72,82.85 42.39,82.85 43.41,83.88C44.44,84.9 44.44,86.57 43.41,87.6ZM52.14,96.32C51.11,97.35 49.44,97.35 48.42,96.32C47.39,95.29 47.39,93.62 48.42,92.6C49.45,91.57 51.12,91.57 52.14,92.6C53.17,93.62 53.17,95.29 52.14,96.32ZM78.27,34.09C77.24,35.12 75.57,35.12 74.55,34.09C73.52,33.06 73.52,31.39 74.55,30.37C75.58,29.34 77.25,29.34 78.27,30.37C79.29,31.39 79.29,33.06 78.27,34.09ZM87,42.81C85.97,43.84 84.3,43.84 83.28,42.81C82.25,41.78 82.25,40.11 83.28,39.09C84.31,38.06 85.98,38.06 87,39.09C88.02,40.11 88.02,41.78 87,42.81ZM89.03,32.44C88,33.47 86.33,33.47 85.31,32.44C84.28,31.41 84.28,29.74 85.31,28.72C86.34,27.69 88.01,27.69 89.03,28.72C90.05,29.75 90.05,31.41 89.03,32.44ZM90.66,21.69C89.63,22.72 87.96,22.72 86.94,21.69C85.91,20.66 85.91,18.99 86.94,17.97C87.97,16.94 89.64,16.94 90.66,17.97C91.69,18.99 91.69,20.66 90.66,21.69ZM96.32,52.14C95.29,53.17 93.62,53.17 92.6,52.14C91.57,51.11 91.57,49.44 92.6,48.42C93.63,47.39 95.3,47.39 96.32,48.42C97.35,49.44 97.35,51.11 96.32,52.14ZM97.96,41.38C96.93,42.41 95.26,42.41 94.24,41.38C93.21,40.35 93.21,38.68 94.24,37.66C95.27,36.63 96.94,36.63 97.96,37.66C98.99,38.69 98.99,40.36 97.96,41.38ZM99.39,30.4C98.36,31.43 96.69,31.43 95.67,30.4C94.64,29.37 94.64,27.7 95.67,26.68C96.7,25.65 98.37,25.65 99.39,26.68C100.41,27.71 100.41,29.38 99.39,30.4ZM101.42,20.04C100.39,21.07 98.72,21.07 97.7,20.04C96.67,19.01 96.67,17.34 97.7,16.32C98.73,15.29 100.4,15.29 101.42,16.32C102.45,17.35 102.45,19.02 101.42,20.04ZM108.72,39.74C107.69,40.77 106.02,40.77 105,39.74C103.97,38.71 103.97,37.04 105,36.02C106.03,34.99 107.7,34.99 108.72,36.02C109.75,37.04 109.75,38.71 108.72,39.74ZM110.36,28.99C109.33,30.02 107.66,30.02 106.64,28.99C105.61,27.96 105.61,26.29 106.64,25.27C107.67,24.24 109.34,24.24 110.36,25.27C111.39,26.29 111.39,27.96 110.36,28.99Z" style="fill:rgb(255,183,77);fill-rule:nonzero;"/>
            <g id="g23915">
                <path id="path23913" d="M87.15,66.04C89.26,63.72 88.88,63.09 84.97,63.34C81.74,63.54 79.67,65.61 78.39,66.89L64.32,80.95C63.07,82.2 61.05,82.2 59.8,80.95C59.76,80.91 48.25,69.4 48.25,69.4C46.97,68.12 45.5,66.44 43.8,65.94C42.41,65.53 41.19,64.92 38.61,65.52C36.39,66.03 40.32,69.36 41.26,70.3C42.78,71.82 54.58,83.62 58.96,88C60.64,89.68 63.36,89.68 65.04,88C65.05,87.99 86.48,66.78 87.15,66.04Z" style="fill:rgb(241,124,4);fill-rule:nonzero;"/>
            </g>
            <path id="path23917" d="M87.95,58.87C87.92,58.78 68.27,39.24 67.72,38.69C66.04,37.01 63.32,37.01 61.64,38.69C59.69,40.64 41.09,59.07 41.09,59.07C41.09,59.07 38.57,61.58 41.21,62.02C43.86,62.46 45.59,62.09 47.52,60.22C52.48,55.42 62.36,45.72 62.36,45.72C63.61,44.47 65.63,44.47 66.88,45.72C69.15,47.99 76.97,55.72 78.6,57.3C80.64,59.28 82.8,60.46 85.71,60.58C89.47,60.74 88.16,59.44 87.95,58.87Z" style="fill:rgb(255,224,178);fill-rule:nonzero;"/>
        </g>
    </g>
</svg>
